assets/images/heart.svg

<svg width="85" height="80" viewBox="0 0 85 80" fill="none" xmlns="http://www.w3.org/2000/svg">
<path fill-rule="evenodd" clip-rule="evenodd" d="M70.7452 14.9919C64.5757 8.45201 52.5136 8.05997 45.9347 15.5325L42.4185 19.5262L38.6606 15.7601C31.0528 8.13552 19.6209 8.95052 14.9752 14.7704L14.9139 14.8473L14.8495 14.9217C8.97162 21.7188 9.15081 32.3966 16.0929 38.4843L16.2359 38.6097L42.7672 65.7107L69.2422 38.6671L69.3225 38.592C75.9718 32.3724 76.4192 21.6323 70.7452 14.9919ZM42.0115 5.55445C52.9657 -2.96547 69.1574 -1.38024 78.1077 8.23047L78.1704 8.29785L78.2307 8.36751C87.4497 19.0283 86.7526 35.8908 76.22 45.8287L42.7672 80L9.36765 45.8833C-1.95039 35.8094 -1.76066 18.9274 7.2403 8.44105C15.4601 -1.75968 31.0701 -2.18444 42.0115 5.55445Z" fill="#174463"/>
</svg>

<svg width="85" height="80" fill="none" xmlns="http://www.w3.org/2000/svg"><path fill-rule="evenodd" clip-rule="evenodd" d="M70.745 14.992c-6.17-6.54-18.231-6.932-24.81.54l-3.517 3.994-3.757-3.766c-7.608-7.624-19.04-6.81-23.686-.99l-.061.077-.064.075c-5.878 6.797-5.7 17.475 1.243 23.562l.143.126 26.531 27.1 26.475-27.043.08-.075c6.65-6.22 7.097-16.96 1.423-23.6zM42.011 5.554C52.966-2.966 69.157-1.38 78.108 8.23l.062.068.06.07c9.22 10.66 8.523 27.523-2.01 37.46L42.767 80l-33.4-34.117C-1.95 35.81-1.76 18.927 7.24 8.441c8.22-10.2 23.83-10.625 34.772-2.887z" fill="#174463"/></svg>
